X: 12558
T: Farewell To Milltown
R: reel
M: 4/4
K: Adorian
|:EAAG A3B|cAAG AGEF|G2DG EGDG|EG2A GEDG|
EAAG A3B|cAAG AGEF|G2dG eGdG|BedB A4:|
|:eaag a3b|c'aag agef|g3a gfef|gabg aged|
eaag a3b|c'abg agef|g3e fedB|AedB A4:|

